en/_assets/api-gateway/spec-constructor/serverless-containers.svg

<?xml version="1.0" encoding="UTF-8"?>
<svg xmlns="http://www.w3.org/2000/svg" xmlns:xlink="http://www.w3.org/1999/xlink" width="16px" height="16px" viewBox="0 0 16 16" version="1.1">
<g id="surface1">
<path style=" stroke:none;fill-rule:evenodd;fill:rgb(32.156863%,50.980392%,100%);fill-opacity:1;" d="M 0 10 C 0 8.347656 1.34375 7 3 7 C 3.074219 7 3.144531 7 3.21875 7.015625 C 3.074219 6.605469 3 6.179688 3 5.746094 C 3 4.753906 3.394531 3.800781 4.097656 3.097656 C 4.800781 2.394531 5.757812 2 6.75 2 C 6.832031 2 7.914062 2 7.996094 2.011719 L 7.996094 13 L 3 13 C 2.207031 13 1.441406 12.683594 0.878906 12.121094 C 0.316406 11.558594 0 10.796875 0 10 Z M 8.996094 13 L 8.996094 10 L 11.996094 10 L 11.996094 13 Z M 12.996094 13 L 12.996094 10 L 15.996094 10 L 15.996094 13 Z M 9 9 L 9 6 L 12 6 L 12 9 Z M 13 9 L 13 6 L 16 6 L 16 9 Z M 8.996094 5 L 8.996094 2.003906 L 11.996094 2.003906 L 11.996094 5.003906 Z M 8.996094 5 "/>
</g>
</svg>

<svg xmlns="http://www.w3.org/2000/svg" width="16" height="16" viewBox="0 0 16 16">
    <path d="M0 10c0-1.652 1.344-3 3-3 .074 0 .145 0 .219.016A3.746 3.746 0 0 1 6.75 2c.082 0 1.164 0 1.246.012V13H3a3.005 3.005 0 0 1-3-3Zm8.996 3v-3h3v3Zm4 0v-3h3v3ZM9 9V6h3v3Zm4 0V6h3v3ZM8.996 5V2.004h3v3Zm0 0" style="stroke:none;fill-rule:evenodd;fill:#5282ff;fill-opacity:1"/>
</svg>
